X:704
T:
N:Ridmarsch,
S:efter »Florsen» i Burs.
O:Gotland, Burs
R:marsch
M:2/4
L:1/16
K:D
(de)(dc) d2g2|(fe)(fg) f2ed|(fa)aa (eg)gg|(fe)(df) [Ae]4|(de)(dc) d2g2|
(fe)(fg) f2ed|(fa)(fd) e2a2|d2dd d4::a2aa a2(3fef|g2gg g4|
f2(ef) (gf)(ed)|c2AA A4|d2dd d2g2|(fe)(fg) f2(ed)|(fa)(fd) e2a2|d2dd d4:|

